docs/img/icons/icon-leaf.svg

<svg width="60" height="60" viewBox="0 0 60 60" fill="none" xmlns="http://www.w3.org/2000/svg">
<rect width="60" height="60" fill="#68B738"/>
<g clip-path="url(#clip0)">
<path d="M42.8438 16.767C42.7434 16.317 42.3647 16 41.9325 16C41.9306 16 41.9288 16 41.9269 16C36.9891 16.033 24.9816 16.916 20.1337 24.38C17.6156 28.258 17.3991 33.293 19.4897 39.345C19.5056 39.392 19.5384 39.424 19.56 39.467C18.8128 41.44 18.5231 42.753 18.5156 42.79C18.4069 43.33 18.7303 43.862 19.2366 43.978C19.3022 43.993 19.3678 44 19.4334 44C19.8656 44 20.2547 43.679 20.3494 43.21C20.3691 43.108 22.7578 32.837 31.2028 26.832C31.6341 26.526 31.7503 25.905 31.4625 25.445C31.1747 24.985 30.5934 24.86 30.1622 25.168C25.3734 28.573 22.4241 33.176 20.6897 36.824C19.4484 32.246 19.7737 28.447 21.6759 25.519C25.4194 19.755 34.2984 18.365 39.6581 18.071C38.505 19.872 37.245 23.174 37.245 29C37.245 32.12 36.4153 34.522 34.7803 36.14C32.1591 38.731 27.9009 38.974 24.7866 38.724C24.2691 38.679 23.82 39.095 23.7806 39.646C23.7412 40.196 24.1284 40.676 24.6441 40.718C25.2675 40.769 25.9331 40.8 26.625 40.8C29.7956 40.8 33.4941 40.137 36.0544 37.606C38.0888 35.595 39.12 32.7 39.12 29.001C39.12 19.902 42.3356 17.905 42.3516 17.896C42.7416 17.687 42.9459 17.219 42.8438 16.767Z" fill="white"/>
</g>
<defs>
<clipPath id="clip0">
<rect width="30" height="32" fill="white" transform="translate(15 14)"/>
</clipPath>
</defs>
</svg>

<svg width="60" height="60" fill="none" xmlns="http://www.w3.org/2000/svg"><path fill="#68B738" d="M0 0h60v60H0z"/><g clip-path="url(#clip0)"><path d="M42.844 16.767c-.1-.45-.48-.767-.912-.767h-.005c-4.938.033-16.945.916-21.793 8.38-2.518 3.878-2.735 8.913-.644 14.965.016.047.048.079.07.122-.747 1.973-1.037 3.286-1.044 3.323-.11.54.214 1.072.72 1.188a.88.88 0 00.197.022c.433 0 .822-.321.916-.79.02-.102 2.409-10.373 10.854-16.378.431-.306.547-.927.26-1.387-.288-.46-.87-.585-1.3-.277-4.79 3.405-7.739 8.008-9.473 11.656-1.242-4.578-.916-8.377.986-11.305 3.743-5.764 12.622-7.154 17.982-7.448-1.153 1.801-2.413 5.103-2.413 10.929 0 3.12-.83 5.522-2.465 7.14-2.62 2.591-6.88 2.834-9.993 2.584-.518-.045-.967.371-1.006.922-.04.55.347 1.03.863 1.072.623.051 1.29.082 1.981.082 3.17 0 6.87-.663 9.43-3.194 2.034-2.011 3.065-4.906 3.065-8.605 0-9.099 3.216-11.096 3.232-11.105.39-.209.594-.677.492-1.129z" fill="#fff"/></g><defs><clipPath id="clip0"><path fill="#fff" transform="translate(15 14)" d="M0 0h30v32H0z"/></clipPath></defs></svg>
